# Test: Repeats
# Tests simple repeats and bracketed repeats

piano:
(tempo 120)

# Simple repeat: c played 4 times
c4*4

# Bracketed sequence repeat
[c4 d4 e4]*2

# Repeat with different content
[c4 d4]*3

# On-repetitions (conditional playback)
# '1 plays first time, '2 plays second time
[c4 d4'1 e4'2]*2

# Multiple on-repetition markers
[c4 d4'1,3 e4'2,4]*4

# Range notation
[c4 d4'1-2 e4'3-4]*4

# Nested repeats
[[c4 d4]*2 e4]*2
